X:1
T:Title
%%score ( 1 2 ) { 3 | 4 }
L:1/8
M:3/4
K:Ab
V:1 treble nm="Grand Piano, Soprano"
V:2 treble 
V:3 treble nm="Choir Pad, Erlesdene, 88.88.88"
V:4 bass 
V:1
 z2 c2 z2 | [EA]2 [Fd]4 | [DF]2 C3- [CF] | [DG]2 [CA]4 | [CA]2 [FA]2 [EG]2 | [DF]2 [CE]4 | %6
 [EA]2 c2 B2 | [=DA]2 [EB]4 | E2 [Ec]2 [DB]2 | [CA]2 [Fd]4 | [DF]2 E3 F | [DG]2 [CA]4 | %12
 [CA]2 [FA]2 [EG]2 | [DF]2 [CE]4 | [EA]2 [FB]2 F2 | [EG]2 [EA]4- | [EA]2 [Ec]2 [Ec]2 | %17
 [Ec]2 [EB]4 | E2 [Ed]4 | [Gd]2 [Ac]4 | [Ac]2 c2 e2 | [EA]2 F2 B2 | [Fd]2 [Ec]4 | [DB]2 [CA]4- | %24
 [CA]4 z2 |] %25
V:2
 [CE]2 E2- [EB]2 | x6 | z2 E4 | x6 | x6 | x6 | z2 =D4 | x6 | x6 | x6 | z2 C4 | x6 | x6 | x6 | x6 | %15
 x6 | x6 | x6 | x6 | x6 | z2 E4 | x6 | x6 | x6 | x6 |] %25
V:3
 A,2 A,2 D2 | C2 D4 | A,2 A,4 | B,2 A,4 | A,2 A,4 | A,2 A,4 | C2 A,4 | A,2 G,4 | G,2 A,4 | %9
 A,2 A,4 | A,2 A,4 | B,2 A,4 | A,2 A,4 | A,2 A,4 | A,2[K:treble] D4 | B,2 C4- | %16
 C2 A,2[K:bass] A,2 | A,2 G,4 | G,2 G,2 B,2 | E2 E4 | E2 A,2 G,2 | A,2 D4 | A,2 A,4 | G,2 A,4- | %24
 A,4 z2 |] %25
V:4
 z6 | A,2 D,4 | D,2 E,4 | E,2 A,,4 | A,,2 D,4 | D,2 A,,4 | A,2 F,4 | F,2 E,4 | E,2 A,,4 | z2 D,4 | %10
 D,2 E,4 | E,2 A,,4 | A,,2 D,4 | D,2 A,,4 | C,2 D,4 | E,2 A,,4- | A,,2 A,,2 C,2 | A,,2 E,4 | %18
 E,2 E,2 G,2 | E,2 A,4 | A,2 A,,2 B,,2 | C,2 D,4 | D,2 E,4 | E,2 A,,4- | A,,4 z2 |] %25

